svgs/light/calendar-day.svg

<svg xmlns="http://www.w3.org/2000/svg" viewBox="0 0 448 512"><!-- Font Awesome Pro 6.0.0-alpha2 by @fontawesome - https://fontawesome.com License - https://fontawesome.com/license (Commercial License) --><path d="M384 64H352V16C352 7.164 344.836 0 336 0S320 7.164 320 16V64H128V16C128 7.164 120.836 0 112 0S96 7.164 96 16V64H64C28.654 64 0 92.654 0 128V448C0 483.346 28.654 512 64 512H384C419.346 512 448 483.346 448 448V128C448 92.654 419.346 64 384 64ZM416 448C416 465.674 401.674 480 384 480H64C46.326 480 32 465.674 32 448V192H416V448ZM416 160H32V128C32 110.326 46.326 96 64 96H384C401.674 96 416 110.326 416 128V160ZM96 384H192C209.674 384 224 369.674 224 352V256C224 238.326 209.674 224 192 224H96C78.328 224 64 238.326 64 256V352C64 369.674 78.328 384 96 384ZM96 256H192V352H96V256Z"/></svg>

<svg xmlns="http://www.w3.org/2000/svg" viewBox="0 0 448 512"><!--! Font Awesome Pro 6.0.0-alpha3 by @fontawesome - https://fontawesome.com License - https://fontawesome.com/license (Commercial License) --><path d="M384 64h-32V16C352 7.164 344.8 0 336 0S320 7.164 320 16V64H128V16C128 7.164 120.8 0 112 0S96 7.164 96 16V64H64C28.65 64 0 92.65 0 128v320c0 35.35 28.65 64 64 64h320c35.35 0 64-28.65 64-64V128C448 92.65 419.3 64 384 64zM416 448c0 17.67-14.33 32-32 32H64c-17.67 0-32-14.33-32-32V192h384V448zM416 160H32V128c0-17.67 14.33-32 32-32h320c17.67 0 32 14.33 32 32V160zM96 384h96c17.67 0 32-14.33 32-32V256c0-17.67-14.33-32-32-32H96C78.33 224 64 238.3 64 256v96C64 369.7 78.33 384 96 384zM96 256h96v96H96V256z"/></svg>
